!!!OTL: 701. Vetter Michel
!!!ARE: Europa, Mitteleuropa, Deutschland
!!!SCT: B0701
!!!TXL: @@DE
!!!YEM: Copyright 1995, estate of Helmut Schaffrath.
**kern	**text
*ICvox	*
*Ivox	*
*clefG2	*
*M4/4	*
*met(c)	*
*k[b-]	*
*F:	*
!LO:TX:a:t=Etwas geſchwind und derb.	!
{8.f	Ge-
16g	-ſtern
=1	=1
4a	A-
4f	-bend
4f	war
8g	Vet-
8a	-ter
=2	=2
4b-	Mi-
4g	-chel
4g}	hier,
{8cc	ge-
8b-	-ſtern
=3	=3
4a	A-
4f	-bend
4f	war
8.e	Vet-
16f	-ter
=4	=4
8gL	Mi-
8fJ	.
8eL	-chel
8dJ	.
4c}	da,
{8.f	Vet-
16g	-ter
=5	=5
4a	Mi-
4f	-chel
4f	war
8.g	ge-
16a	-ſtern
=6	=6
4b-	A-
4g	-bend
4g}	hier,
{8.cc	ge-
16b-	-ſtern
=7	=7
4a	A-
4f	-bend
(16aqq	.
8gL)	war
8fJ	.
8gL	er
8aJ	.
=8	=8
4f	da!
4r	.
4r}	.
=||	=||
{8.aL	Der
16b-J	.
=9	=9
4cc	ein
4cc	ſprach
4cc	nein,
4ee-	der
=10	=10
4dd	an-
4b-	-dre
4b-}	ja,
{8.b-	Vet-
16cc	-ter
=11	=11
4dd	Mi-
4dd	-chel
4dd	ſprach
4ff	wohl
=12	=12
4een	nein
4dd	und
4cc}	ja!
{8.f	Vet-
16g	-ter
=13	=13
4a	Mi-
4f	-chel
4f	war
8.g	ge-
16a	-ſtern
=14	=14
4b-	A-
4g	-bend
4g}	hier,
{8.cc	geſtern
16b-	.
=15	=15
4a	A-
4a	-bend
8aq	.
8gL	war
8fJ	.
8gL	er
8aJ	.
=16	=16
4f	da.
4r	.
4r}	.
==	==
!!!AGN: Scherz - Lied
!!!GTL: Scherzlieder und Gemischtes
!!!ONB: ESAC (Essen Associative Code) Database: BOEHME
!!!AMT: simple quadruple
!!!AIN: vox
!!!EED: Helmut Schaffrath
!!!EEV: 1.0
!!Mel. in ganz Deutschland bekannt.
!!@@COMMENT:"Lied nach Erk, Voltsl. II. 4/5. Nr. 23. Fink, Hausſchatʒ S. 52. Bei Kretʒſchmer, Volksl. I.
!!Nr. 163 verfälſcht. Jede Strophe beginnt und ſchließt mit den ʒwei Ʒeilen Vetter Michel war rc.
!!wie oben in 1. und 2. Strophe). Erk ſetʒt die Entſtehung des Liedes nach der Mitte des 18. Jahrhunderts und mag 
!!es in den Jahren 1800-1810 und noch ſpäter am meiſten geſungen worden
!!ſein. Jn den Variationen aus dieſer Ʒeit ſpielt ſeine Melodie eine Rolle. So gab es Sechs
!!Variationes" auf die bekannte Ariette: "Vetter Michel". Von E. Freiling. Bei J. J. Hummel in
!!Amſterdam. Vermuthlich deutet auch folgende Stelle in Dan. Schuberts Deutſcher Chronik (1776
!!v. 18. Juni) auf das damalige Vorhandenſein des Liedes: Ueber den treuherʒigen Vetter Michel
!!mit der lächerlichſten Grimaſſe eines abgenutʒten Dorfſchulmeiſters (folgt Notenprobe aus 3 Fugen
!!für Orgel, Augsb. 1776, die Schubart recenſirt) mußt' ich herʒlich lachen; war mirs doch, als
!!hört' ich ein Präludium aus den Ʒeiten des dreißigjährigen Kriegs."
!!@@END:
!!!URL-scan: https://archive.org/details/BoehmeVtLieder1895/page/n551/mode/2up
!!!ENC: Anna Maria Matuszewska
!!!EEV: 2024/17/07
*-	*-
